X: 900
T: Gösterip Ağyâre Lûtfun
C: Hacı Ârif Bey
O: Turkey
F: http://compmusic.upf.edu/node/140
N: mahur--sarki--musemmen--gosterip_agyare--haci_arif_bey
N: makam= mahur
N: form= sarki
N: usul= musemmen = 8/8
M: 8/8
L: 1/16
K: C ^9/8f   
Q: 1/4=138
%%MIDI tuningsystem comma53
g4 gag2 f2g2 ^f2e2  | ^f4 e2ed ^3/4ced6  | \
w:  ARANAĞME  |   | 
d4 efg2 a2b2 a2g2  | 
w:   | 
f4 d2e3/2d/ efg6  | d4 g2=f2 e2d2 c2B2  | \
w:   |   | 
c4 e2dc B^3/4AB6  | 
w:   | 
G4 ABc2 e2d2 ^c2_7/8B2  | _7/8B4 A2AG GFG6  | \
w:   |   | 
g4 gag2 f2g2 ^f2e2  | 
w:  ARANAĞME  | 
^f4 e2ed ^3/4ced6  | d4 efg2 a2b2 a2g2  | \
w:   |   | 
f4 d2e3/2d/ efg6  | 
w:   | 
d4 g2=f2 e2d2 c2B2  | c4 e2dc B^3/4AB6  | \
w:   |   | 
G4 ABc2 e2d2 ^c2_7/8B2  | 
w:   | 
_7/8B4 A2AG GFG6  | gfe2 f2ag gfg6  | \
w:   |  Gös *  *  te rip  *  *  *  ağ  | 
g4 a2{b}a2 g2g2 f2.e2  | 
w:  yâ re  *  lût *  fun   | 
g2f2 e2^f2 e2f2 e2d2  | efe2 f2g8z2  | \
w:  biz   |  biz *  *  le re   | 
g2a2 b2c'2 b2c'2 b2a2  | 
w:  bî   | 
{d'}c'2b2 a2b2 a2b2 a2g2  | {d'}c'2b2 a2g2 f2ef e2f2  | \
w:  *  bî  |  *  gâ *  *  *  *  *  *  *  ne  | 
g4 =fedc BAGA/B/ c/d/e/^9/8f/g2  | 
w:  sin   SAZ  | 
g2a2 b2c'2 b2c'2 b2a2  | c'2b2 a2b2 a2b2 a2g2  | \
w:  SAZ  |   | 
{d'}c'2b2 a2g2 f2e4f2  | 
w:   | 
g4 d2e3/2d/ efg4z2  | g4 =fed4{b}a2 g2f2  | \
w:   |  Bî ve *  fâ  *  gör  | 
.e4 edd=f edd4z2  | 
w:  mek  ne  *  müş *  *  *  kül   | 
ded2 c2B4g6  | g2=f2 e2d2 c2B2 A2G2  | \
w:  â *  *  şı ka  câ  |  nâ   | 
G2A2 B2c2 B2c2 B2A2  | 
w:   | 
c2B2 A2B2 A2B2 A2G2  | ^3/4cde2 dcc_7/8B BAdc BAGF  | 
w:   |  nâ  *  *  *  *  *  *  *  *  *  *  *  *  ne  | 
G4 d2e3/2d/ efg6  | g4 =fed4{b}a2 g2f2  | \
w:  sin   SAZ  |  Bî ve *  fâ  *  gör  | 
.e4 edd=f edd4z2  | 
w:  mek  ne  *  müş *  *  *  kül   | 
ded2 c2B4g6  | g2=f2 e2d2 c2B2 A2G2  | \
w:  â *  *  şı ka  câ  |  nâ   | 
G2A2 B2c2 B2c2 B2A2  | 
w:   | 
c2B2 A2B2 A2B2 A2G2  | ^3/4cde2 dcc_7/8B BAdc BAGF  | 
w:   |  nâ  *  *  *  *  *  *  *  *  *  *  *  *  ne  | 
G4 d_1/4edc B^3/4AB6  | G2B2 B2B4d6  | \
w:  sin   SAZ  |  Böy *  le  üz mek   | 
ded2 c2B4g6  | g2^f2 _2/4e2d2 c2f3e{f}ed  | 
w:  şâ *  *  nı na  lâ  |  yık  *  *  *  *  *  *  *  mı  | 
d4 d_1/4edc B^3/4AB4z2  | G2B2 B2B4d6  | \
w:  dır   SAZ  |  Böy *  le  üz mek   | 
ded2 c2B4g6  | g2^f2 _2/4e2d2 c2f3e{f}ed  | 
w:  şâ *  *  nı na  lâ  |  yık  *  *  *  *  *  *  *  mı  | 
d6e/f/e/d/ efg4z2  | g2a2 b2c'2 b2c'2 b2a2  | \
w:  dır  SAZ  |  dî  | 
c'2b2 a2b2 a2b2 a2g2  | 
w:   | 
c'2b2 a2g2 f2ef e2f2  | g4 =fedc BAGA/B/ c/d/e/^9/8f/g2  | 
w:  vâ *  *  *  *  *  *  *  ne  |  sin   SAZ  | 
g2a2 b2c'2 b2c'2 b2a2  | c'2b2 a2b2 a2b2 a2g2  | \
w:  SAZ  |   | 
{d'}c'2b2 a2g2 f2e4f2  | 
w:   | 
g4 d2e3/2d/ efg4z2  | g4 =fed4{b}a2 g2f2  | \
w:   |  Bî ve *  fâ  *  gör  | 
.e4 edd=f edd4z2  | 
w:  mek  ne  *  müş *  *  *  kül   | 
ded2 c2B4g6  | g2=f2 e2d2 c2B2 A2G2  | \
w:  â *  *  şı ka  câ  |  nâ   | 
G2A2 B2c2 B2c2 B2A2  | 
w:   | 
c2B2 A2B2 A2B2 A2G2  | ^3/4cde2 dcc_7/8B BAdc BAGF  | 
w:   |  nâ  *  *  *  *  *  *  *  *  *  *  *  *  ne  | 
G4 d2e3/2d/ efg6  | g4 =fed4{b}a2 g2f2  | \
w:  sin   SAZ  |  Bî ve *  fâ  *  gör  | 
.e4 edd=f edd4z2  | 
w:  mek  ne  *  müş *  *  *  kül   | 
ded2 c2B4g6  | g2=f2 e2d2 c2B2 A2G2  | \
w:  â *  *  şı ka  câ  |  nâ   | 
G2A2 B2c2 B2c2 B2A2  | 
w:   | 
c2B2 A2B2 A2B2 A2G2  | ^3/4cde2 dcc_7/8B BAdc BAGF  | 
w:   |  nâ  *  *  *  *  *  *  *  *  *  *  *  *  ne  | 
G4 D2ED EFG6  | |


